X:48
T:Lochmaben Hornpipe, The
C:Joe Buchanan's Scottish Tome - Page 201.2
I:201 2
Z:Carl Allison
R:Hornpipe
L:1/8
M:C
K:D
FE | "D"D2 d2 d2 (cd) | "A7"ecAc "D"d2 (de) | "D"fdfd "A7"gege | "D"afdf "A"e2 (FE) |
"D"D2 d2 d2 (cd) | "A7"ecAc "D"d2 (cd) | "A"efed "E7"cBA^G | "A"A2 A2 A2 :|
fg | "D"aafe "D7"dedc | "G"B2 G2 G2 (ga) | "Em"bagf efed | "A7"c2 A2 A2 (fg) |
"D"afaf "G"gbgb | "D"afaf "G"gbgb | "D"af"G"ba "D"fe"A7"dc | "D"d2 d2 d2 :|

